packages/gestalt-icons-android/vr-theme/ic_vr_manage-access_gestalt.svg

<svg width="24" height="24" viewBox="0 0 24 24" fill="none" xmlns="http://www.w3.org/2000/svg">
<path fill-rule="evenodd" clip-rule="evenodd" d="M11.874 13C11.4299 14.7252 9.86384 16 8 16C5.79086 16 4 14.2091 4 12C4 9.79086 5.79086 8 8 8C9.86384 8 11.4299 9.27477 11.874 11H20V13H18V15H16V13H11.874ZM10 12C10 13.1046 9.10457 14 8 14C6.89543 14 6 13.1046 6 12C6 10.8954 6.89543 10 8 10C9.10457 10 10 10.8954 10 12Z" fill="black"/>
<path fill-rule="evenodd" clip-rule="evenodd" d="M12 3L10.1716 1.17157C9.42143 0.421427 8.40401 0 7.34315 0H4C1.79086 0 0 1.79086 0 4V17C0 19.2091 1.79086 21 4 21H20C22.2091 21 24 19.2091 24 17V7C24 4.79086 22.2091 3 20 3H12ZM11.1716 5H20C21.1046 5 22 5.89543 22 7V17C22 18.1046 21.1046 19 20 19H4C2.89543 19 2 18.1046 2 17V4C2 2.89543 2.89543 2 4 2H7.34315C7.87358 2 8.38229 2.21071 8.75736 2.58579L11.1716 5Z" fill="black"/>
</svg>

<svg xmlns="http://www.w3.org/2000/svg" width="24" height="24"><path d="M16 13v2h2v-2h2v-2h-8.13a4 4 0 1 0 0 2zm-6-1a2 2 0 1 1-4 0 2 2 0 0 1 4 0m2-9-1.83-1.83A4 4 0 0 0 7.34 0H4a4 4 0 0 0-4 4v13a4 4 0 0 0 4 4h16a4 4 0 0 0 4-4V7a4 4 0 0 0-4-4zm-.83 2H20a2 2 0 0 1 2 2v10a2 2 0 0 1-2 2H4a2 2 0 0 1-2-2V4c0-1.1.9-2 2-2h3.34a2 2 0 0 1 1.42.59z"/></svg>
